images/Graph.svg

<svg width="446" height="457" viewBox="0 0 446 457" fill="none" xmlns="http://www.w3.org/2000/svg">
<path d="M79.3589 151.847C25.1073 153.375 10.1922 226.847 -17.1411 236.847V512.847H462.359V0.846802C439.859 63.3468 380.859 118.847 310.859 95.8468C249.674 75.7434 242.073 217.955 178.359 227.347C125.354 235.16 132.915 150.339 79.3589 151.847Z" fill="url(#paint0_linear_136_759)"/>
<path fill-rule="evenodd" clip-rule="evenodd" d="M405.875 82.443C379.02 101.643 345.95 110.008 310.079 98.2219C302.884 95.858 296.615 95.9134 290.975 97.7208C285.296 99.5408 280.069 103.198 275.1 108.331C265.093 118.668 256.574 134.5 247.783 151.675C246.94 153.321 246.096 154.979 245.247 156.644C237.324 172.191 229.085 188.36 219.346 201.499C208.554 216.059 195.614 227.33 178.724 229.82C164.691 231.889 154.488 227.789 146.387 220.492C138.453 213.344 132.566 203.145 126.894 193.2L126.509 192.524C120.882 182.655 115.402 173.045 108.204 165.878C100.963 158.668 92.0329 153.991 79.4293 154.346C53.5956 155.073 36.9339 172.874 23.0598 192.608C19.8664 197.15 16.8497 201.75 13.9074 206.237C13.6677 206.603 13.4284 206.968 13.1896 207.332C10.0311 212.146 6.94471 216.82 3.8564 221.038C-2.24604 229.374 -8.68264 236.414 -16.2821 239.195L-18 234.499C-11.9328 232.279 -6.255 226.386 -0.17799 218.085C2.82343 213.985 5.84299 209.415 9.00895 204.589C9.24957 204.222 9.49102 203.854 9.73331 203.485C12.6678 199.009 15.7273 194.343 18.9695 189.732C32.9492 169.848 50.8708 150.148 79.2886 149.348C93.4632 148.949 103.671 154.309 111.732 162.335C119.42 169.989 125.195 180.122 130.699 189.778C130.879 190.093 131.058 190.408 131.237 190.723C136.995 200.817 142.504 210.264 149.733 216.777C156.795 223.138 165.524 226.712 177.994 224.874C192.961 222.667 204.864 212.64 215.329 198.522C224.803 185.74 232.848 169.959 240.811 154.337C241.652 152.687 242.492 151.039 243.332 149.397C252.054 132.358 260.89 115.82 271.507 104.853C276.85 99.3339 282.753 95.1054 289.449 92.9594C296.185 90.8009 303.538 90.8098 311.639 93.4717C345.768 104.685 377.198 96.8001 402.967 78.3756C428.799 59.9073 448.898 30.8581 460.007 0L464.711 1.6936C453.32 33.3355 432.669 63.2863 405.875 82.443Z" fill="#76BA28"/>
<defs>
<linearGradient id="paint0_linear_136_759" x1="222.609" y1="0.846802" x2="222.609" y2="512.847" gradientUnits="userSpaceOnUse">
<stop stop-color="#76BA27"/>
<stop offset="1" stop-color="#D9D9D9" stop-opacity="0"/>
</linearGradient>
</defs>
</svg>

<svg xmlns="http://www.w3.org/2000/svg" width="4" height="200" fill="none" viewBox="0 0 600 300"><path fill="url(#a)" d="M79.359 151.847c-54.252 1.528-69.167 75-96.5 85v276h479.5v-512c-22.5 62.5-81.5 118-151.5 95-61.185-20.104-68.786 122.108-132.5 131.5-53.005 7.813-45.444-77.008-99-75.5Z"/><path fill="#76BA28" fill-rule="evenodd" d="M405.875 82.443c-26.855 19.2-59.925 27.565-95.796 15.779-7.195-2.364-13.464-2.309-19.104-.501-5.679 1.82-10.906 5.477-15.875 10.61-10.007 10.337-18.526 26.169-27.317 43.344-.843 1.646-1.687 3.304-2.536 4.969-7.923 15.547-16.162 31.716-25.901 44.855-10.792 14.56-23.732 25.831-40.622 28.321-14.033 2.069-24.236-2.031-32.337-9.328-7.934-7.148-13.821-17.347-19.493-27.292l-.385-.676c-5.627-9.869-11.107-19.479-18.305-26.646-7.241-7.21-16.171-11.887-28.775-11.532-25.833.727-42.495 18.528-56.37 38.262-3.193 4.542-6.21 9.142-9.152 13.629l-.717 1.095c-3.159 4.814-6.245 9.488-9.334 13.706-6.102 8.336-12.539 15.376-20.138 18.157L-18 234.499c6.067-2.22 11.745-8.113 17.822-16.414 3.001-4.1 6.021-8.67 9.187-13.496l.724-1.104c2.935-4.476 5.994-9.142 9.236-13.753 13.98-19.884 31.902-39.584 60.32-40.384 14.174-.399 24.382 4.961 32.443 12.987 7.688 7.654 13.463 17.787 18.967 27.443l.538.945c5.758 10.094 11.267 19.541 18.496 26.054 7.062 6.361 15.791 9.935 28.261 8.097 14.967-2.207 26.87-12.234 37.335-26.352 9.474-12.782 17.519-28.563 25.482-44.185.841-1.65 1.681-3.298 2.521-4.94 8.722-17.039 17.558-33.577 28.175-44.544 5.343-5.52 11.246-9.748 17.942-11.894 6.736-2.158 14.089-2.15 22.19.513 34.129 11.213 65.559 3.328 91.328-15.096C428.799 59.907 448.898 30.858 460.007 0l4.704 1.694c-11.391 31.642-32.042 61.592-58.836 80.749Z" clip-rule="evenodd"/><defs><linearGradient id="a" x1="222.609" x2="222.609" y1=".847=" y2="512.847" gradientUnits="userSpaceOnUse"><stop stop-color="#76BA27"/><stop offset="1" stop-color="#D9D9D9" stop-opacity="0"/></linearGradient></defs></svg>
